client/src/assets/images/icon-symptoms.svg

<svg fill="none" height="70" viewBox="0 0 70 70" width="70" xmlns="http://www.w3.org/2000/svg"><g fill="#fff"><path d="m35 0c-19.2987 0-35 15.7013-35 35 0 19.2988 15.7013 35 35 35 19.2988 0 35-15.7012 35-35 0-19.2987-15.7012-35-35-35zm-20 52.8487-5.76875 1.9226c-3.415-4.44-5.705-9.7813-6.455-15.6013l12.22375 3.0562zm20 14.6513c-9.5238 0-18.1025-4.1175-24.0525-10.665l4.0525-1.35v.765c0 .69.5588 1.25 1.25 1.25h37.5c.6912 0 1.25-.56 1.25-1.25v-.765l4.0525 1.3513c-5.95 6.5462-14.5287 10.6637-24.0525 10.6637zm-17.5-12.5v-16.25h35v16.25zm37.5-12.7738 12.2237-3.0562c-.7487 5.82-3.0399 11.1625-6.4549 15.6013l-5.7688-1.9226zm12.4613-5.6924-12.4613 3.115v-2.1488c0-.69-.5588-1.25-1.25-1.25h-37.5c-.6912 0-1.25.56-1.25 1.25v2.1488l-12.46125-3.115c-.02375-.5088-.03875-1.0201-.03875-1.5338 0-17.92 14.5788-32.5 32.5-32.5s32.5 14.58 32.5 32.5c0 .5137-.015 1.025-.0387 1.5338z"/><path d="m47.25 26.5c-2.481 0-4.5 1.6825-4.5 3.75h-3c0-3.4462 3.3645-6.25 7.5-6.25s7.5 2.8038 7.5 6.25h-3c0-2.0675-2.019-3.75-4.5-3.75z"/><path d="m23.5 26.5c-2.481 0-4.5 1.6825-4.5 3.75h-3c0-3.4462 3.3645-6.25 7.5-6.25s7.5 2.8038 7.5 6.25h-3c0-2.0675-2.019-3.75-4.5-3.75z"/></g></svg>

<svg width="70" height="70" viewBox="0 0 70 70" fill="none" xmlns="http://www.w3.org/2000/svg">
<path d="M35 0C15.7013 0 0 15.7013 0 35C0 54.2988 15.7013 70 35 70C54.2988 70 70 54.2988 70 35C70 15.7013 54.2988 0 35 0ZM15 52.8487L9.23125 54.7713C5.81625 50.3313 3.52625 44.99 2.77625 39.17L15 42.2262V52.8487ZM35 67.5C25.4762 67.5 16.8975 63.3825 10.9475 56.835L15 55.485V56.25C15 56.94 15.5588 57.5 16.25 57.5H53.75C54.4412 57.5 55 56.94 55 56.25V55.485L59.0525 56.8363C53.1025 63.3825 44.5238 67.5 35 67.5ZM17.5 55V38.75H52.5V55H17.5ZM55 42.2262L67.2237 39.17C66.475 44.99 64.1838 50.3325 60.7688 54.7713L55 52.8487V42.2262ZM67.4613 36.5338L55 39.6488V37.5C55 36.81 54.4412 36.25 53.75 36.25H16.25C15.5588 36.25 15 36.81 15 37.5V39.6488L2.53875 36.5338C2.515 36.025 2.5 35.5137 2.5 35C2.5 17.08 17.0788 2.5 35 2.5C52.9212 2.5 67.5 17.08 67.5 35C67.5 35.5137 67.485 36.025 67.4613 36.5338Z" fill="white"/>
<path d="M47.25 26.5C44.769 26.5 42.75 28.1825 42.75 30.25H39.75C39.75 26.8038 43.1145 24 47.25 24C51.3855 24 54.75 26.8038 54.75 30.25H51.75C51.75 28.1825 49.731 26.5 47.25 26.5Z" fill="white"/>
<path d="M23.5 26.5C21.019 26.5 19 28.1825 19 30.25H16C16 26.8038 19.3645 24 23.5 24C27.6355 24 31 26.8038 31 30.25H28C28 28.1825 25.981 26.5 23.5 26.5Z" fill="white"/>
</svg>
